!!!COM: Henri Duparc
!!!CNT: Francais
!!!TXO: Francais
!!!OTL: Se/re/nade
!!!LYR: Gabriel Marc
!!!ENC: Jacob Pegg
!!!YOR: Henri Duparc: Complete Songs for Voice and Piano
!!!YOR: New York: Dover publications, inc., 1995 
!!!YOR: ISBN 0-486-28466-2
!!!ODT: 1869/
!!NB: Vocal melody and text only encoded.
**kern	**silbe
*clef G2	*
*k[f-]	*
*M6/8	*
*MM[andante]	*
!! created: 6/25/03 14:11
!! last edited: 7/21/03 22:29
=3	=3
{16d	{Si
16d	j'e/-
4d	-tais,
8.f#	o^
16b	mon
16b	a-
16dd	-mou-
=4	=4
4.dd	-reu-
8dd}	-se,}
8r	.
{8d	{La
=5	=5
4d	bri-
8g	-se
8.f#	au
16b	souffle
16b	par-
16dd	-fu-
=6	=6
[4.dd	-me/,
4dd]}	|}
8r	.
=7	=7
{(4ee	{Pour
8b	fro^-
4dd)	-ler
8dd	ta
=8	=8
(4ee	bou-
16b)	-che
16b	rieu-
(4.dd#	|
=9	=9
4ddn)}	se,}
8r	.
{4cc#	{Je
8a	vien-
=10	=10
4f#	-drais
8ccn	crain-
[4.b	-tif
=11	=11
8b]	|
8b	et
8b	char-
4b}	-me/.}
8r;	.
=12	=12
*k[f#c#g#d#]	*
{16B	{Si
16B	j;e/-
8.B	-tais
16e	l'a-
4d#	-beil-
16g#	-le
16g#	qui
=13	=13
4.b	vo-
4b}	-le,}
8r	.
=14	=14
{4B	{Ou
8e	le
16d#	pa-
16d#	-pil-
8d#	-lon
16g#	se/-
16g#	-duc-
=15	=15
[4.b	-teur,
8b]}	|}
8r	.
{[8ee	{Tu
=16	=16
8ee]	|
16ee	ne
16ee	me
16dd#	ver-
16cc#	-rais
4b	pas,
8b	fri-
=17	=17
(4.cc#	-vo-
4dd#)}	-le,}
8r	.
=18	=18
{4ee	{Te
8b	quit-
4a	-ter
8e	pour
=19	=19
(8d#	u-
8.b)	-ne au-
16b	-tre
4.b}	fleur.}
!!20-23 rest
=24	=24
*k[f#]	*
{16d	{Si
16d	j'e-
8.d	-tais
16g	la
4f#	ro-
16b	-se
16b	char-
=25	=25
4.dd	-man-
4d}	-te}
8r	.
=26	=26
{16d	{Que
16d	la
4d	main
8.f#	pla-
16b	-ce
16b	sur
16dd	ton
=27	=27
[4.dd	coeur
4dd]}	|}
8r	.
=28	=28
*k[f#]	*
{8dd	{Si
8ffn	pre\s
8dd	de
!! prior note duration doubled to correct timing
8cc	toi
8r	.
[8cc	tou-
=29	=29
8cc]	|
8a-	-te
8ee-	trem-
4ee-	-blan-
[8b-	-te
=30	=30
4b-]}	|}
8r	.
4r	.
8r	.
=31	=31
{4ff#	{Je
8f#	me
16cc#	fa-
16cc#	-ne-
4cc#	-rais
=32	=32
4cc#	de
8cc#	bon-
[4.cc#	-heur
=33	=33
4cc#]}	|}
8r	.
4r	.
8r	.
=34	=34
{16f#	{Mais
16f#	en
8.a	vain
16a	je
4b	cher-
16a	-che a\
16b	te
=35	=35
4ccn	plai-
16ccn}	-re,}
16r	.
{8dd	{J'ai
8.dd	beau
16dd	ge/-
=36	=36
4.ee	-mir
8dd	et
8.dd	sou-
16dd	-pi-
=37	=37
[4.ee	-rer.
4.ee_	|
=38	=38
4ee]}	|}
8r	.
4r	.
8r	.
=39	=39
8r	.
{8.b	{Je
16dd	suis
4dd	hom-
8a}	-me,}
=40	=40
16r	.
{8a	{et
16a	que
16a	puis~
16cc	~je
4cc	fai-
[8g	-re?
=41	=41
8g]}	|}
4r	.
4r	.
8r	.
=42	=42
16r	.
{16d	{Tai-
8d}	-mer,}
8r	.
8r	.
{16f#	{Te
16b	le
16b	di-
16b}	-re...}
=43	=43
8r	.
{8.dd	{Et
16dd	pleu-
4.dd;}	-rer!}
*-	*-
